!!!OTL: 1. Schlaf, Kindlein, schlaf!
!!!COM: Reichardt
!!!ODT: 1781
!!!ARE: Europa, Mitteleuropa, Deutschland, Hessen ?
!!!SCT: K0001
!!!TXL: @@DE
!!!YEM: Copyright 1995, estate of Helmut Schaffrath.
**kern	**text
*clefG2	*
*M2/4	*
*k[b-]	*
*F:	*
=1	=1
{4a	Schlaf,
8g	Kindlein,
8g	.
=2	=2
4f	ſchlaf!
8r}	.
{8c	Der
=3	=3
8a	Va-
8a	-ter
8g	hüt't
8g	die
=4	=4
4f	Schaf,
8r}	.
{8f	die
=5	=5
8b-	Mut-
8b-	-ter
8g	ſchüt-
8g	-telt's
=6	=6
8cc	Bäu-
8cc	-me-
8a}	-lein,
{8a	da
=7	=7
8b-	fällt
8b-	her-
8g	-ab
8g	ein
=8	=8
8cc	Träumelein*.
8cc	.
4a}	.
=9	=9
!LO:TX:a:t=+	!
{4b-	Schlaf,
8g	Kindlein,
8g	.
=10	=10
4f	ſchlaf!
4r}	.
==	==
!!!AGN: Kinder -, Wiegen - Lied
!!!ONB: ESAC (Essen Associative Code) Database: KINDER
!!!AMT: simple duple
!!!AIN: vox
!!!EED: Helmut Schaffrath
!!!EEV: 1.0
!!Mel. 1781 von Reichardt (nach der Volksweise).
!!Text: Heinr. Campe
!!@@COMMENT:"Jn ganʒ Deutſchland gekannt und in vielen Varianten vorhanden;
!!die hier ſtehende Faſſung mag aus Heſſen und Thüringen ſtammen.[...] Die obige Mel. iſt von J. F. Reichardt (nach der Volksweiſe) komponirt. Ʒuerſt in Reichardt's "Liedern für Kinder" aus Campe's Kinderbibliothek J (Hamburg 1781)
!!mit der Ueberſchrift: "Fiekchens Wiegenlied, ihrer Puppe vorʒuſingen". Der Text
!!von Heinr. Campe, 1799 gedruckt, beginnt: "Schlaf, Kindchen, ſchlaf! da draußen
!!iſt ein Schaf" rc. Wiederholt in Reichardt's "Wiegenliedern für gute deutſche Mütter"
!!Leipʒig 1798) Nr. 11. Vergl. Hoffmann, Volksthüml. Lieder 762. Erk, Jugendalb.
!!Nr. 23. Friedländer, Wiegenlieder Rr. 1.
!!*Träumelchen, thüringiſch für kleine Traube, gereimt auf Bäumichen.
!!+Dieſe Note heißt a im Original. Erk ſetʒt das muſikaliſch beſſere b."
!!@@END:
!!!GTL: I. Wiegenlieder.
!!!URL-scan: https://archive.org/details/DeutschesKinderliedUndKinderspiel/page/1/mode/1up
!!!ENC: Anna Maria Matuszewska
!!!EEV: 2024/29/08
*-	*-
